X: 20342
T: WAS IST DES DEUTSCHEN VATERLAND?
T: WHERE IS THE GERMAN'S FATHERLAND?
O: Burschen melody.
R: air, march
Q: "With energy and feeling."
%R: march
B: W. Hamilton "Universal Tune-Book" Vol. 2 Glasgow 1846 p.34 #2
S: http://s3-eu-west-1.amazonaws.com/itma.dl.printmaterial/book_pdfs/hamiltonvol2web.pdf
Z: 2016 John Chambers <jc:trillian.mit.edu>
M: C
L: 1/8
K: D
%%stretchstaff 0
% - - - - - - - - - - - - - - - - - - - - - - - - -
ABc |\
d3F (AG)(FE) | D4 z2d2 |\
d>B B4 d2 | d>A A4 d2 |\
c3c d3d | e3c A2A2 |\
d3d e3e | f3d A2 |: A2 |\
f3e gfed | B4 zBdB |\
Addf (fed)c | d4 z :|
% - - - - - - - - - - - - - - - - - - - - - - - - -

%%sep 1 1 500
%%sep 1 1 500

